tools/download-figma-icons/icons/outlined-large/teddy.svg

<svg width="64" height="64" viewBox="0 0 64 64" fill="none" xmlns="http://www.w3.org/2000/svg">
<path fill-rule="evenodd" clip-rule="evenodd" d="M46.3526 55.6431C47.7126 53.8271 48.4996 51.7331 48.4996 49.4991C48.4996 42.6072 41.0977 36.9992 31.9998 36.9992C22.9028 36.9992 15.4999 42.6072 15.4999 49.4991C15.4999 51.7331 16.2879 53.8271 17.6479 55.6431C8.90793 51.2461 2.99998 42.9702 2.99998 33.4993C2.99998 29.0173 4.34997 24.6023 6.90395 20.7324C7.12395 20.3994 7.20194 19.9934 7.12095 19.6024C7.03995 19.2114 6.80695 18.8704 6.47295 18.6514C4.32597 17.2454 3.04298 14.9454 3.04298 12.4994C3.04298 8.36445 6.63195 4.99947 11.0429 4.99947C14.1859 4.99947 17.0509 6.74446 18.3409 9.44344C18.6799 10.1524 19.5089 10.4784 20.2418 10.1924C23.9598 8.73744 27.9168 7.99945 31.9998 7.99945C36.0697 7.99945 40.0147 8.73344 43.7277 10.1784C44.4557 10.4614 45.2837 10.1374 45.6237 9.43044C46.9166 6.73946 49.7796 4.99947 52.9156 4.99947C57.3276 4.99947 60.9155 8.36445 60.9155 12.4994C60.9155 14.9324 59.6425 17.2264 57.5096 18.6344C57.1776 18.8544 56.9466 19.1964 56.8666 19.5864C56.7876 19.9764 56.8656 20.3814 57.0846 20.7134C59.6465 24.5873 60.9995 29.0093 60.9995 33.4993C60.9995 42.9702 55.0926 51.2461 46.3526 55.6431ZM18.4999 49.4991C18.4999 45.2262 22.5328 41.6052 28.0588 40.4142L28.0513 40.4658L28.0512 40.4658C28.0255 40.6415 27.9998 40.817 27.9998 40.9992C27.9998 43.2082 29.7908 44.9992 31.9998 44.9992C34.2087 44.9992 35.9997 43.2082 35.9997 40.9992C35.9997 40.8121 35.9735 40.632 35.9472 40.4516L35.9472 40.4515L35.9417 40.4142C41.4677 41.6052 45.4997 45.2262 45.4997 49.4991C45.4997 54.7381 39.4447 58.9991 31.9998 58.9991C24.5558 58.9991 18.4999 54.7381 18.4999 49.4991ZM60.3315 20.2494C62.5975 18.2724 63.9155 15.4654 63.9155 12.4994C63.9155 6.70946 58.9816 1.9995 52.9156 1.9995C49.1116 1.9995 45.5897 3.89948 43.5967 6.93446C39.8957 5.65047 36.0007 4.99947 31.9998 4.99947C27.9858 4.99947 24.0798 5.65447 20.3718 6.94746C18.3789 3.90448 14.8549 1.9995 11.0429 1.9995C4.97796 1.9995 0.0429997 6.70946 0.0429997 12.4994C0.0429997 15.4814 1.37099 18.2964 3.65497 20.2744C1.25999 24.3413 0 28.8853 0 33.4993C0 49.2141 14.3559 61.999 31.9998 61.999C49.6446 61.999 63.9995 49.2141 63.9995 33.4993C63.9995 28.8743 62.7355 24.3233 60.3315 20.2494ZM30.0003 29.9997C30.0003 27.7907 28.2093 25.9997 26.0003 25.9997C23.7913 25.9997 22.0003 27.7907 22.0003 29.9997C22.0003 32.2087 23.7913 33.9997 26.0003 33.9997C28.2093 33.9997 30.0003 32.2087 30.0003 29.9997ZM38.0002 25.9997C40.2092 25.9997 42.0002 27.7907 42.0002 29.9997C42.0002 32.2087 40.2092 33.9997 38.0002 33.9997C35.7912 33.9997 34.0002 32.2087 34.0002 29.9997C34.0002 27.7907 35.7912 25.9997 38.0002 25.9997Z" fill="black"/>
</svg>

<svg xmlns="http://www.w3.org/2000/svg" width="64" height="64" fill="none" viewBox="0 0 64 64"><path fill="currentColor" fill-rule="evenodd" d="M46.353 55.643c1.36-1.816 2.147-3.91 2.147-6.144C48.5 42.607 41.098 37 32 37s-16.5 5.608-16.5 12.5c0 2.234.788 4.328 2.148 6.144C8.908 51.246 3 42.97 3 33.5c0-4.482 1.35-8.897 3.904-12.767a1.497 1.497 0 0 0-.431-2.08c-2.147-1.407-3.43-3.707-3.43-6.153 0-4.135 3.589-7.5 8-7.5 3.143 0 6.008 1.745 7.298 4.444a1.5 1.5 0 0 0 1.9.75C23.96 8.736 27.918 7.998 32 7.998c4.07 0 8.015.734 11.728 2.18a1.5 1.5 0 0 0 1.896-.749C46.917 6.74 49.78 5 52.916 5c4.412 0 8 3.364 8 7.5 0 2.432-1.273 4.726-3.406 6.134a1.504 1.504 0 0 0-.425 2.08c2.562 3.873 3.914 8.295 3.914 12.785 0 9.471-5.906 17.747-14.646 22.144M18.5 49.5c0-4.273 4.033-7.894 9.559-9.085l-.008.052c-.025.175-.051.351-.051.533a4 4 0 0 0 8 0 4 4 0 0 0-.053-.547l-.005-.038c5.526 1.191 9.558 4.812 9.558 9.085 0 5.24-6.055 9.5-13.5 9.5-7.444 0-13.5-4.26-13.5-9.5m41.83-29.25c2.266-1.977 3.584-4.784 3.584-7.75 0-5.79-4.933-10.5-11-10.5-3.803 0-7.325 1.9-9.318 4.935A35.3 35.3 0 0 0 32 5c-4.014 0-7.92.655-11.628 1.948C18.379 3.904 14.855 2 11.042 2 4.979 2 .044 6.71.044 12.5c0 2.981 1.328 5.796 3.612 7.774C1.26 24.341 0 28.885 0 33.5 0 49.214 14.356 62 32 62c17.645 0 32-12.785 32-28.5 0-4.625-1.264-9.176-3.669-13.25M30.001 30A4 4 0 1 0 22 30a4 4 0 0 0 8 0m8-4a4 4 0 1 1 0 8 4 4 0 0 1 0-8" clip-rule="evenodd"/></svg>
